!!!COM:	Pierre de la Rue
**kern	**kern
*part2	*part1
*staff2	*staff1
*clefGv2	*clefG2
*k[]	*k[]
*M2/1	*M2/1
=1-	=1-
1A	0r
2B	.
[2A	.
=2	=2
2A]	1a
1d	.
.	2b
2c	[2a
=3	=3
1f	2a]
.	1dd
1e	.
.	2cc
=4	=4
2r	1ff
2.A	.
.	1ee
4B	.
2c	.
=5	=5
2d	2r
1c	2.a
.	4b
4B	2cc
4A	.
=6	=6
2G	2dd
2.A	1cc
4B	.
4c	4b
4d	4a
=7	=7
2e	2g
2f	2.a
1d	.
.	4b
.	4cc
.	4dd
=8	=8
2c	2ee
2.d	2ff
.	2.dd
4c	.
4B	.
4A	4cc
=9	=9
2G	4b
.	4a
2A	1a
1B	.
.	2g
=10	=10
1A	[0a
2r	.
2d	.
=11	=11
2c	0a]
2.f	.
4e	.
4d	.
4c	.
=12	=12
2d	2r
2A	2a
2B	2g
[2A	[2cc
=13	=13
2A]	4cc]
.	4b
2.c	4a
.	4g
.	2a
4B	.
[2e	2e
=14	=14
2e]	2f
2d	4e
.	4d
2e	1c
[2g	.
=15	=15
2g]	2r
2e	2g
2f	2a
4e	2b
4d	.
=16	=16
1c	1e
2d	2f
2e	[2e
=17	=17
1A	2e]
.	2a
2B	2g
[2A	[2cc
=18	=18
2A]	2cc]
2d	4b
.	4a
2c	2g
[2f	[2a
=19	=19
4f]	4a]
4e	4g
1e	4f
.	4e
.	1f
2d	.
=20	=20
0e	1e
.	2r
.	[2g
=21	=21
2r	2g]
1e	4e
.	4f
.	2g
2f	[2a
=22	=22
4d	2a]
4e	.
2f	2a
1g	2b
.	4g
.	4a
=23	=23
2g	2b
2a	1cc
4f	.
4g	.
2a	2cc
=24	=24
1d	2dd
.	4b
.	4cc
2d	2dd
2e	[2g
=25	=25
4c	2g]
4d	.
2e	2g
1A	2a
.	[2cc
=26	=26
[0e	2cc]
.	2b
.	2cc
.	[2b
=27	=27
0e]	4b]
.	4a
.	4g
.	4f
.	1e
=28	=28
2r	2r
1e	1cc
4c	4a
4d	4b
=29	=29
2e	2cc
2.d	2.b
4c	4a
4B	4g
4A	4f
=30	=30
2G	2e
2A	1a
1B	.
.	2g
=31	=31
0A	0a
==	==
*-	*-
